X:1818
T:Erwten Plukken
C:Trad.
O:England
L:1/4
M:2/2
P:ABC
K:G
P:A
z | d2 d d | B>c d d | e d c B | A3 B | A G G F | G3 :|
P:B
G | F D F G | A2 B A | G/A/ B A G | F3 F | E D E>D | D3 :|
P:C
d | B G G A/B/ | c3 c | B G G A/B/ | c3 d | B G G A/B/ | c>d | e d/c/ | B c/B/ A>G | G3 :|
